X: 7
T: DA MERRY BOYS O' GREENLAND
S: Nelvyn Leask, Anderson High
R: reel
B: Haand me doon da fiddle, 1979
Z: 2012 John Chambers <jc:trillian.mit.edu>
M: C
L: 1/8
K: D
|:\
u(AB)vde fdv[f2d2] | veece Aecu(e | AB)de fdf2 |
gecA d2uk.d2 :||: u(fg)fe fga2 | u(gf)ec efg2 |
u(fg)fe fgau(f | ge)cA vd2uk.d2 :|
%%begintext align
Dis t\"un was ta'en back be Shetland fiddlers fae da whale fishing
ida Artic.  Da ships gyaain to Greenland to fish whales \"osed to
call slang Lerwick to get men to join dem.  Dey usually always
wanted a fiddler.  Dere is anidder wye o't played in Denmark.
Nearly every Shetland fiddler played dis t\"un.
%%endtext

%%sep 2 1 500
%%sep 1 1 500

